outputs/icons/toggle/radio_button_checked_round.svg

<svg xmlns="http://www.w3.org/2000/svg" width="1200" height="1200" fill="none"><g fill="#000" clip-path="url(#a)"><path d="M850 600c0 138.07-111.93 250-250 250-138.071 0-250-111.93-250-250 0-138.071 111.929-250 250-250 138.07 0 250 111.929 250 250"/><path fill-rule="evenodd" d="M100 600c0-276 224-500 500-500s500 224 500 500-224 500-500 500-500-224-500-500m100 0c0 221 179 400 400 400s400-179 400-400-179-400-400-400-400 179-400 400"/></g><defs><clipPath id="a"><path fill="#fff" d="M0 0h1200v1200H0z"/></clipPath></defs></svg>

<svg width="1200" height="1200" viewBox="0 0 1200 1200" fill="none" xmlns="http://www.w3.org/2000/svg"><g clip-path="url(#clip0_238_2772)"><path d="M850 600C850 738.07 738.07 850 600 850C461.929 850 350 738.07 350 600C350 461.929 461.929 350 600 350C738.07 350 850 461.929 850 600Z" fill="black"/><path fill-rule="evenodd" d="M100 600C100 324 324 100 600 100C876 100 1100 324 1100 600C1100 876 876 1100 600 1100C324 1100 100 876 100 600ZM200 600C200 821 379 1000 600 1000C821 1000 1000 821 1000 600C1000 379 821 200 600 200C379 200 200 379 200 600Z" fill="black"/></g><defs><clipPath id="clip0_238_2772"><path width="24" fill="white" d="M0 0H1200V1200H0V0z"/></clipPath></defs></svg>
